src/svg/github.svg

<?xml version="1.0" encoding="UTF-8"?>
<svg width="52px" height="52px" viewBox="0 0 52 52" version="1.1" xmlns="http://www.w3.org/2000/svg" xmlns:xlink="http://www.w3.org/1999/xlink">
    <!-- Generator: Sketch 47.1 (45422) - http://www.bohemiancoding.com/sketch -->
    <title>github</title>
    <desc>Created with Sketch.</desc>
    <defs></defs>
    <g id="Icons" stroke="none" stroke-width="1" fill="none" fill-rule="evenodd">
        <g id="github">
            <circle id="Oval" fill="#BDC3C7" cx="26" cy="26" r="26"></circle>
            <path d="M25.9238308,11 C17.6784143,11 11,17.6821452 11,25.9238308 C11,32.5189204 15.2756775,38.111626 21.2041693,40.0828153 C21.9503608,40.223348 22.2239644,39.7619529 22.2239644,39.3652277 C22.2239644,39.0107868 22.2115279,38.0718291 22.2053096,36.8281765 C18.0539974,37.728581 17.178466,34.8258959 17.178466,34.8258959 C16.4994316,33.1034371 15.5181898,32.6432856 15.5181898,32.6432856 C14.1663394,31.7180081 15.6226566,31.7366629 15.6226566,31.7366629 C17.1212579,31.8411297 17.90849,33.2738175 17.90849,33.2738175 C19.2391983,35.5559199 21.4019101,34.8967841 22.2550557,34.5149827 C22.3893702,33.5499083 22.7736588,32.8920161 23.2002317,32.5189204 C19.8858976,32.1458246 16.4024267,30.8623751 16.4024267,25.1440606 C16.4024267,23.5148758 16.9807252,22.1841675 17.9383377,21.1394994 C17.7704446,20.7626726 17.2667653,19.2454165 18.0689212,17.1896588 C18.0689212,17.1896588 19.318792,16.7892027 22.1729747,18.7193515 C23.3668811,18.3872962 24.6354067,18.2231341 25.9039324,18.2156722 C27.172458,18.2231341 28.4409836,18.3872962 29.6348901,18.7193515 C32.4704179,16.7892027 33.7202887,17.1896588 33.7202887,17.1896588 C34.5224446,19.2454165 34.0187654,20.7626726 33.869527,21.1394994 C34.8209213,22.1841675 35.3992197,23.5148758 35.3992197,25.1440606 C35.3992197,30.877299 31.9107743,32.1396063 28.5902219,32.5064838 C29.112556,32.9541988 29.5975805,33.869527 29.5975805,35.2673925 C29.5975805,37.2646986 29.5789257,38.8690104 29.5789257,39.3540349 C29.5789257,39.7457854 29.8400927,40.2121551 30.6049391,40.0629168 C36.575715,38.1054077 40.8476616,32.5089711 40.8476616,25.9238308 C40.8476616,17.6821452 34.1655164,11 25.9238308,11" id="Shape" fill="#FFFFFF" fill-rule="nonzero"></path>
        </g>
    </g>
</svg>

<svg width="52" height="52" xmlns="http://www.w3.org/2000/svg"><path d="M26 52c14.36 0 26-11.64 26-26S40.36 0 26 0 0 11.64 0 26s11.64 26 26 26zm-.076-41C17.678 11 11 17.682 11 25.924c0 6.595 4.276 12.188 10.204 14.159.746.14 1.02-.321 1.02-.718 0-.354-.012-1.293-.019-2.537-4.151.9-5.027-2.002-5.027-2.002-.679-1.723-1.66-2.183-1.66-2.183-1.352-.925.105-.906.105-.906 1.498.104 2.285 1.537 2.285 1.537 1.331 2.282 3.494 1.623 4.347 1.241.134-.965.519-1.623.945-1.996-3.314-.373-6.798-1.657-6.798-7.375 0-1.63.579-2.96 1.536-4.005-.168-.376-.671-1.894.13-3.95 0 0 1.25-.4 4.105 1.53a14.307 14.307 0 0 1 3.73-.503c1.27.007 2.538.171 3.732.503 2.835-1.93 4.085-1.53 4.085-1.53.802 2.056.299 3.574.15 3.95.95 1.045 1.53 2.376 1.53 4.005 0 5.733-3.49 6.996-6.81 7.362.523.448 1.008 1.364 1.008 2.761 0 1.998-.02 3.602-.02 4.087 0 .392.262.858 1.027.709 5.97-1.958 10.243-7.554 10.243-14.14 0-8.24-6.682-14.923-14.924-14.923" fill="#D8D8D8" fill-rule="evenodd"/></svg>
